images/6605096.svg

<?xml version="1.0" encoding="UTF-8"?>
<svg xmlns="http://www.w3.org/2000/svg" xmlns:xlink="http://www.w3.org/1999/xlink" width="300pt" height="300pt" viewBox="0 0 300 300" version="1.1">
<defs>
<g>
<symbol overflow="visible" id="glyph0-0">
<path style="stroke:none;" d="M 0.453125 1.59375 L 0.453125 -6.34375 L 4.953125 -6.34375 L 4.953125 1.59375 Z M 0.953125 1.09375 L 4.453125 1.09375 L 4.453125 -5.84375 L 0.953125 -5.84375 Z M 0.953125 1.09375 "/>
</symbol>
<symbol overflow="visible" id="glyph0-1">
<path style="stroke:none;" d="M 0.890625 -6.5625 L 2.078125 -6.5625 L 4.984375 -1.078125 L 4.984375 -6.5625 L 5.84375 -6.5625 L 5.84375 0 L 4.65625 0 L 1.75 -5.484375 L 1.75 0 L 0.890625 0 Z M 0.890625 -6.5625 "/>
</symbol>
<symbol overflow="visible" id="glyph0-2">
<path style="stroke:none;" d="M 0.890625 -6.5625 L 1.765625 -6.5625 L 1.765625 -3.875 L 5 -3.875 L 5 -6.5625 L 5.890625 -6.5625 L 5.890625 0 L 5 0 L 5 -3.125 L 1.765625 -3.125 L 1.765625 0 L 0.890625 0 Z M 0.890625 -6.5625 "/>
</symbol>
</g>
</defs>
<g id="surface32845">
<rect x="0" y="0" width="300" height="300" style="fill:rgb(100%,100%,100%);fill-opacity:1;stroke:none;"/>
<path style="fill:none;stroke-width:1.2;stroke-linecap:butt;stroke-linejoin:miter;stroke:rgb(0%,0%,0%);stroke-opacity:1;stroke-miterlimit:10;" d="M 264.75 143.257812 L 247.847656 137.363281 "/>
<path style="fill:none;stroke-width:1.2;stroke-linecap:butt;stroke-linejoin:miter;stroke:rgb(0%,0%,0%);stroke-opacity:1;stroke-miterlimit:10;" d="M 247.847656 137.363281 L 241.070312 143.207031 "/>
<path style="fill:none;stroke-width:1.2;stroke-linecap:butt;stroke-linejoin:miter;stroke:rgb(0%,0%,100%);stroke-opacity:1;stroke-miterlimit:10;" d="M 241.070312 143.207031 L 234.292969 149.054688 "/>
<path style="fill:none;stroke-width:1.2;stroke-linecap:butt;stroke-linejoin:miter;stroke:rgb(0%,0%,100%);stroke-opacity:1;stroke-miterlimit:10;" d="M 234.292969 149.054688 L 235.964844 157.84375 "/>
<path style="fill:none;stroke-width:1.2;stroke-linecap:butt;stroke-linejoin:miter;stroke:rgb(0%,0%,0%);stroke-opacity:1;stroke-miterlimit:10;" d="M 235.964844 157.84375 L 237.636719 166.636719 "/>
<path style="fill:none;stroke-width:1.2;stroke-linecap:butt;stroke-linejoin:miter;stroke:rgb(0%,0%,100%);stroke-opacity:1;stroke-miterlimit:10;" d="M 234.292969 149.054688 L 225.84375 146.105469 "/>
<path style="fill:none;stroke-width:1.2;stroke-linecap:butt;stroke-linejoin:miter;stroke:rgb(0%,0%,0%);stroke-opacity:1;stroke-miterlimit:10;" d="M 225.84375 146.105469 L 217.390625 143.160156 "/>
<path style=" stroke:none;fill-rule:nonzero;fill:rgb(100%,100%,100%);fill-opacity:1;" d="M 231.292969 143.554688 L 238.292969 143.554688 L 238.292969 154.554688 L 231.292969 154.554688 Z M 231.292969 143.554688 "/>
<g style="fill:rgb(0%,0%,100%);fill-opacity:1;">
  <use xlink:href="#glyph0-1" x="231.292969" y="152.217773"/>
</g>
<path style="fill:none;stroke-width:1.2;stroke-linecap:butt;stroke-linejoin:miter;stroke:rgb(0%,0%,0%);stroke-opacity:1;stroke-miterlimit:10;" d="M 237.636719 166.636719 L 254.539062 172.53125 "/>
<path style="fill:none;stroke-width:1.2;stroke-linecap:butt;stroke-linejoin:miter;stroke:rgb(0%,0%,0%);stroke-opacity:1;stroke-miterlimit:10;" d="M 217.390625 143.160156 L 203.835938 154.847656 "/>
<path style="fill:none;stroke-width:1.2;stroke-linecap:butt;stroke-linejoin:miter;stroke:rgb(0%,0%,0%);stroke-opacity:1;stroke-miterlimit:10;" d="M 203.835938 154.847656 L 186.933594 148.953125 "/>
<path style="fill:none;stroke-width:1.2;stroke-linecap:butt;stroke-linejoin:miter;stroke:rgb(0%,0%,0%);stroke-opacity:1;stroke-miterlimit:10;" d="M 186.933594 148.953125 L 173.378906 160.644531 "/>
<path style="fill:none;stroke-width:1.2;stroke-linecap:butt;stroke-linejoin:miter;stroke:rgb(0%,0%,0%);stroke-opacity:1;stroke-miterlimit:10;" d="M 173.378906 160.644531 L 176.722656 178.226562 "/>
<path style="fill:none;stroke-width:1.2;stroke-linecap:butt;stroke-linejoin:miter;stroke:rgb(0%,0%,0%);stroke-opacity:1;stroke-miterlimit:10;" d="M 173.378906 160.644531 L 164.929688 157.695312 "/>
<path style="fill:none;stroke-width:1.2;stroke-linecap:butt;stroke-linejoin:miter;stroke:rgb(0%,0%,100%);stroke-opacity:1;stroke-miterlimit:10;" d="M 164.929688 157.695312 L 156.476562 154.746094 "/>
<path style="fill:none;stroke-width:1.2;stroke-linecap:butt;stroke-linejoin:miter;stroke:rgb(0%,0%,100%);stroke-opacity:1;stroke-miterlimit:10;" d="M 156.476562 154.746094 L 149.125 159.851562 "/>
<path style="fill:none;stroke-width:1.2;stroke-linecap:butt;stroke-linejoin:miter;stroke:rgb(0%,0%,0%);stroke-opacity:1;stroke-miterlimit:10;" d="M 149.125 159.851562 L 141.773438 164.957031 "/>
<path style="fill:none;stroke-width:1.2;stroke-linecap:butt;stroke-linejoin:miter;stroke:rgb(0%,0%,0%);stroke-opacity:1;stroke-miterlimit:10;" d="M 151.3125 137.609375 L 153.894531 146.179688 "/>
<path style="fill:none;stroke-width:1.2;stroke-linecap:butt;stroke-linejoin:miter;stroke:rgb(0%,0%,100%);stroke-opacity:1;stroke-miterlimit:10;" d="M 153.894531 146.179688 L 156.476562 154.746094 "/>
<path style=" stroke:none;fill-rule:nonzero;fill:rgb(100%,100%,100%);fill-opacity:1;" d="M 153.476562 149.246094 L 160.476562 149.246094 L 160.476562 160.246094 L 153.476562 160.246094 Z M 153.476562 149.246094 "/>
<g style="fill:rgb(0%,0%,100%);fill-opacity:1;">
  <use xlink:href="#glyph0-1" x="153.476562" y="157.90918"/>
</g>
<path style="fill:none;stroke-width:1.2;stroke-linecap:butt;stroke-linejoin:miter;stroke:rgb(0%,0%,0%);stroke-opacity:1;stroke-miterlimit:10;" d="M 141.773438 164.957031 L 127.519531 154.128906 "/>
<path style="fill:none;stroke-width:1.2;stroke-linecap:butt;stroke-linejoin:miter;stroke:rgb(0%,0%,0%);stroke-opacity:1;stroke-miterlimit:10;" d="M 137.800781 167.226562 L 126.398438 158.5625 "/>
<path style="fill:none;stroke-width:1.2;stroke-linecap:butt;stroke-linejoin:miter;stroke:rgb(0%,0%,100%);stroke-opacity:1;stroke-miterlimit:10;" d="M 139.523438 182.714844 L 140.648438 173.835938 "/>
<path style="fill:none;stroke-width:1.2;stroke-linecap:butt;stroke-linejoin:miter;stroke:rgb(0%,0%,0%);stroke-opacity:1;stroke-miterlimit:10;" d="M 140.648438 173.835938 L 141.773438 164.957031 "/>
<path style="fill:none;stroke-width:1.2;stroke-linecap:butt;stroke-linejoin:miter;stroke:rgb(0%,0%,0%);stroke-opacity:1;stroke-miterlimit:10;" d="M 127.519531 154.128906 L 111.015625 161.054688 "/>
<path style="fill:none;stroke-width:1.2;stroke-linecap:butt;stroke-linejoin:miter;stroke:rgb(0%,0%,0%);stroke-opacity:1;stroke-miterlimit:10;" d="M 127.519531 154.128906 L 130.46875 145.675781 "/>
<path style="fill:none;stroke-width:1.2;stroke-linecap:butt;stroke-linejoin:miter;stroke:rgb(0%,0%,100%);stroke-opacity:1;stroke-miterlimit:10;" d="M 130.46875 145.675781 L 133.417969 137.226562 "/>
<path style="fill:none;stroke-width:1.2;stroke-linecap:butt;stroke-linejoin:miter;stroke:rgb(0%,0%,0%);stroke-opacity:1;stroke-miterlimit:10;" d="M 111.015625 161.054688 L 109.890625 169.933594 "/>
<path style="fill:none;stroke-width:1.2;stroke-linecap:butt;stroke-linejoin:miter;stroke:rgb(0%,0%,100%);stroke-opacity:1;stroke-miterlimit:10;" d="M 109.890625 169.933594 L 108.765625 178.8125 "/>
<path style="fill:none;stroke-width:1.2;stroke-linecap:butt;stroke-linejoin:miter;stroke:rgb(0%,0%,0%);stroke-opacity:1;stroke-miterlimit:10;" d="M 114.96875 163.363281 L 114.070312 170.464844 "/>
<path style="fill:none;stroke-width:1.2;stroke-linecap:butt;stroke-linejoin:miter;stroke:rgb(0%,0%,100%);stroke-opacity:1;stroke-miterlimit:10;" d="M 114.070312 170.464844 L 113.167969 177.566406 "/>
<path style="fill:none;stroke-width:1.2;stroke-linecap:butt;stroke-linejoin:miter;stroke:rgb(0%,0%,0%);stroke-opacity:1;stroke-miterlimit:10;" d="M 111.015625 161.054688 L 103.890625 155.640625 "/>
<path style="fill:none;stroke-width:1.2;stroke-linecap:butt;stroke-linejoin:miter;stroke:rgb(0%,0%,100%);stroke-opacity:1;stroke-miterlimit:10;" d="M 103.890625 155.640625 L 96.765625 150.226562 "/>
<path style="fill:none;stroke-width:1.2;stroke-linecap:butt;stroke-linejoin:miter;stroke:rgb(0%,0%,100%);stroke-opacity:1;stroke-miterlimit:10;" d="M 108.765625 178.8125 L 115.890625 184.226562 "/>
<path style="fill:none;stroke-width:1.2;stroke-linecap:butt;stroke-linejoin:miter;stroke:rgb(0%,0%,0%);stroke-opacity:1;stroke-miterlimit:10;" d="M 115.890625 184.226562 L 123.015625 189.640625 "/>
<path style=" stroke:none;fill-rule:nonzero;fill:rgb(100%,100%,100%);fill-opacity:1;" d="M 105.765625 173.3125 L 112.765625 173.3125 L 112.765625 184.3125 L 105.765625 184.3125 Z M 105.765625 173.3125 "/>
<g style="fill:rgb(0%,0%,100%);fill-opacity:1;">
  <use xlink:href="#glyph0-1" x="105.765625" y="181.975586"/>
</g>
<path style="fill:none;stroke-width:1.2;stroke-linecap:butt;stroke-linejoin:miter;stroke:rgb(0%,0%,0%);stroke-opacity:1;stroke-miterlimit:10;" d="M 123.015625 189.640625 L 131.269531 186.179688 "/>
<path style="fill:none;stroke-width:1.2;stroke-linecap:butt;stroke-linejoin:miter;stroke:rgb(0%,0%,100%);stroke-opacity:1;stroke-miterlimit:10;" d="M 131.269531 186.179688 L 139.523438 182.714844 "/>
<path style="fill:none;stroke-width:1.2;stroke-linecap:butt;stroke-linejoin:miter;stroke:rgb(0%,0%,0%);stroke-opacity:1;stroke-miterlimit:10;" d="M 123.039062 185.066406 L 129.640625 182.292969 "/>
<path style="fill:none;stroke-width:1.2;stroke-linecap:butt;stroke-linejoin:miter;stroke:rgb(0%,0%,100%);stroke-opacity:1;stroke-miterlimit:10;" d="M 129.640625 182.292969 L 136.242188 179.523438 "/>
<path style="fill:none;stroke-width:1.2;stroke-linecap:butt;stroke-linejoin:miter;stroke:rgb(0%,0%,0%);stroke-opacity:1;stroke-miterlimit:10;" d="M 123.015625 189.640625 L 120.765625 207.398438 "/>
<path style=" stroke:none;fill-rule:nonzero;fill:rgb(100%,100%,100%);fill-opacity:1;" d="M 136.523438 177.214844 L 143.523438 177.214844 L 143.523438 188.214844 L 136.523438 188.214844 Z M 136.523438 177.214844 "/>
<g style="fill:rgb(0%,0%,100%);fill-opacity:1;">
  <use xlink:href="#glyph0-1" x="136.523438" y="185.87793"/>
</g>
<path style="fill:none;stroke-width:1.2;stroke-linecap:butt;stroke-linejoin:miter;stroke:rgb(0%,0%,100%);stroke-opacity:1;stroke-miterlimit:10;" d="M 96.765625 150.226562 L 88.511719 153.691406 "/>
<path style="fill:none;stroke-width:1.2;stroke-linecap:butt;stroke-linejoin:miter;stroke:rgb(0%,0%,0%);stroke-opacity:1;stroke-miterlimit:10;" d="M 88.511719 153.691406 L 80.257812 157.15625 "/>
<path style=" stroke:none;fill-rule:nonzero;fill:rgb(100%,100%,100%);fill-opacity:1;" d="M 89.765625 144.726562 L 103.765625 144.726562 L 103.765625 155.726562 L 89.765625 155.726562 Z M 89.765625 144.726562 "/>
<g style="fill:rgb(0%,0%,100%);fill-opacity:1;">
  <use xlink:href="#glyph0-1" x="89.765625" y="153.389648"/>
  <use xlink:href="#glyph0-2" x="96.743164" y="153.389648"/>
</g>
<path style="fill:none;stroke-width:1.2;stroke-linecap:butt;stroke-linejoin:miter;stroke:rgb(0%,0%,0%);stroke-opacity:1;stroke-miterlimit:10;" d="M 80.257812 157.15625 L 66.007812 146.324219 "/>
<path style="fill:none;stroke-width:1.2;stroke-linecap:butt;stroke-linejoin:miter;stroke:rgb(0%,0%,0%);stroke-opacity:1;stroke-miterlimit:10;" d="M 66.007812 146.324219 L 68.257812 128.566406 "/>
<path style="fill:none;stroke-width:1.2;stroke-linecap:butt;stroke-linejoin:miter;stroke:rgb(0%,0%,0%);stroke-opacity:1;stroke-miterlimit:10;" d="M 62.054688 144.019531 L 63.855469 129.8125 "/>
<path style="fill:none;stroke-width:1.2;stroke-linecap:butt;stroke-linejoin:miter;stroke:rgb(0%,0%,0%);stroke-opacity:1;stroke-miterlimit:10;" d="M 49.503906 153.253906 L 66.007812 146.324219 "/>
<path style="fill:none;stroke-width:1.2;stroke-linecap:butt;stroke-linejoin:miter;stroke:rgb(0%,0%,0%);stroke-opacity:1;stroke-miterlimit:10;" d="M 68.257812 128.566406 L 54.007812 117.738281 "/>
<path style="fill:none;stroke-width:1.2;stroke-linecap:butt;stroke-linejoin:miter;stroke:rgb(0%,0%,0%);stroke-opacity:1;stroke-miterlimit:10;" d="M 54.007812 117.738281 L 37.503906 124.667969 "/>
<path style="fill:none;stroke-width:1.2;stroke-linecap:butt;stroke-linejoin:miter;stroke:rgb(0%,0%,0%);stroke-opacity:1;stroke-miterlimit:10;" d="M 53.988281 122.316406 L 40.78125 127.859375 "/>
<path style="fill:none;stroke-width:1.2;stroke-linecap:butt;stroke-linejoin:miter;stroke:rgb(0%,0%,0%);stroke-opacity:1;stroke-miterlimit:10;" d="M 37.503906 124.667969 L 35.25 142.425781 "/>
<path style="fill:none;stroke-width:1.2;stroke-linecap:butt;stroke-linejoin:miter;stroke:rgb(0%,0%,0%);stroke-opacity:1;stroke-miterlimit:10;" d="M 35.25 142.425781 L 49.503906 153.253906 "/>
<path style="fill:none;stroke-width:1.2;stroke-linecap:butt;stroke-linejoin:miter;stroke:rgb(0%,0%,0%);stroke-opacity:1;stroke-miterlimit:10;" d="M 39.222656 140.15625 L 50.625 148.816406 "/>
<path style="fill:none;stroke-width:1.2;stroke-linecap:butt;stroke-linejoin:miter;stroke:rgb(0%,0%,100%);stroke-opacity:1;stroke-miterlimit:10;" d="M 133.417969 137.226562 L 142.363281 137.417969 "/>
<path style="fill:none;stroke-width:1.2;stroke-linecap:butt;stroke-linejoin:miter;stroke:rgb(0%,0%,0%);stroke-opacity:1;stroke-miterlimit:10;" d="M 142.363281 137.417969 L 151.3125 137.609375 "/>
<path style="fill:none;stroke-width:1.2;stroke-linecap:butt;stroke-linejoin:miter;stroke:rgb(0%,0%,100%);stroke-opacity:1;stroke-miterlimit:10;" d="M 135.117188 141.476562 L 142.273438 141.628906 "/>
<path style="fill:none;stroke-width:1.2;stroke-linecap:butt;stroke-linejoin:miter;stroke:rgb(0%,0%,0%);stroke-opacity:1;stroke-miterlimit:10;" d="M 142.273438 141.628906 L 149.433594 141.78125 "/>
<path style=" stroke:none;fill-rule:nonzero;fill:rgb(100%,100%,100%);fill-opacity:1;" d="M 130.417969 131.726562 L 137.417969 131.726562 L 137.417969 142.726562 L 130.417969 142.726562 Z M 130.417969 131.726562 "/>
<g style="fill:rgb(0%,0%,100%);fill-opacity:1;">
  <use xlink:href="#glyph0-1" x="130.417969" y="140.389648"/>
</g>
<path style="fill:none;stroke-width:1.2;stroke-linecap:butt;stroke-linejoin:miter;stroke:rgb(0%,0%,0%);stroke-opacity:1;stroke-miterlimit:10;" d="M 151.3125 137.609375 L 162.140625 123.355469 "/>
<path style="fill:none;stroke-width:1.2;stroke-linecap:butt;stroke-linejoin:miter;stroke:rgb(0%,0%,0%);stroke-opacity:1;stroke-miterlimit:10;" d="M 162.140625 123.355469 L 179.898438 125.609375 "/>
<path style="fill:none;stroke-width:1.2;stroke-linecap:butt;stroke-linejoin:miter;stroke:rgb(0%,0%,0%);stroke-opacity:1;stroke-miterlimit:10;" d="M 164.445312 119.402344 L 178.652344 121.207031 "/>
<path style="fill:none;stroke-width:1.2;stroke-linecap:butt;stroke-linejoin:miter;stroke:rgb(0%,0%,0%);stroke-opacity:1;stroke-miterlimit:10;" d="M 155.210938 106.851562 L 162.140625 123.355469 "/>
<path style="fill:none;stroke-width:1.2;stroke-linecap:butt;stroke-linejoin:miter;stroke:rgb(0%,0%,0%);stroke-opacity:1;stroke-miterlimit:10;" d="M 179.898438 125.609375 L 190.726562 111.355469 "/>
<path style="fill:none;stroke-width:1.2;stroke-linecap:butt;stroke-linejoin:miter;stroke:rgb(0%,0%,0%);stroke-opacity:1;stroke-miterlimit:10;" d="M 190.726562 111.355469 L 183.800781 94.851562 "/>
<path style="fill:none;stroke-width:1.2;stroke-linecap:butt;stroke-linejoin:miter;stroke:rgb(0%,0%,0%);stroke-opacity:1;stroke-miterlimit:10;" d="M 186.152344 111.335938 L 180.609375 98.132812 "/>
<path style="fill:none;stroke-width:1.2;stroke-linecap:butt;stroke-linejoin:miter;stroke:rgb(0%,0%,0%);stroke-opacity:1;stroke-miterlimit:10;" d="M 183.800781 94.851562 L 166.042969 92.601562 "/>
<path style="fill:none;stroke-width:1.2;stroke-linecap:butt;stroke-linejoin:miter;stroke:rgb(0%,0%,0%);stroke-opacity:1;stroke-miterlimit:10;" d="M 166.042969 92.601562 L 155.210938 106.851562 "/>
<path style="fill:none;stroke-width:1.2;stroke-linecap:butt;stroke-linejoin:miter;stroke:rgb(0%,0%,0%);stroke-opacity:1;stroke-miterlimit:10;" d="M 168.3125 96.574219 L 159.648438 107.976562 "/>
</g>
</svg>

<svg xmlns="http://www.w3.org/2000/svg" xmlns:xlink="http://www.w3.org/1999/xlink" width="300pt" height="300pt" viewBox="0 0 300 300"><defs><symbol overflow="visible"><path d="M.453 1.594v-7.938h4.5v7.938zm.5-.5h3.5v-6.938h-3.5zm0 0"/></symbol><symbol overflow="visible" id="a"><path d="M.89-6.563H2.08l2.906 5.485v-5.484h.86V0H4.656L1.75-5.484V0H.89zm0 0"/></symbol><symbol overflow="visible" id="b"><path d="M.89-6.563h.876v2.688H5v-2.688h.89V0H5v-3.125H1.766V0H.89zm0 0"/></symbol></defs><g><path fill="#fff" d="M0 0h300v300H0z"/><path d="M264.75 143.258l-16.902-5.895M247.848 137.363l-6.778 5.844" stroke-width="1.2" stroke="#000" stroke-miterlimit="10" fill="none"/><path d="M241.07 143.207l-6.777 5.848M234.293 149.055l1.672 8.79" stroke-width="1.2" stroke="#00f" stroke-miterlimit="10" fill="none"/><path d="M235.965 157.844l1.672 8.793" stroke-width="1.2" stroke="#000" stroke-miterlimit="10" fill="none"/><path d="M234.293 149.055l-8.45-2.95" stroke-width="1.2" stroke="#00f" stroke-miterlimit="10" fill="none"/><path d="M225.844 146.105l-8.453-2.945" stroke-width="1.2" stroke="#000" stroke-miterlimit="10" fill="none"/><path d="M231.293 143.555h7v11h-7zm0 0" fill="#fff"/><use xlink:href="#a" x="231.293" y="152.218" fill="#00f"/><path d="M237.637 166.637l16.902 5.894M217.39 143.16l-13.554 11.688M203.836 154.848l-16.902-5.895M186.934 148.953l-13.555 11.692M173.38 160.645l3.343 17.582M173.38 160.645l-8.45-2.95" stroke-width="1.2" stroke="#000" stroke-miterlimit="10" fill="none"/><path d="M164.93 157.695l-8.453-2.95M156.477 154.746l-7.352 5.106" stroke-width="1.2" stroke="#00f" stroke-miterlimit="10" fill="none"/><path d="M149.125 159.852l-7.352 5.105M151.313 137.61l2.582 8.57" stroke-width="1.2" stroke="#000" stroke-miterlimit="10" fill="none"/><path d="M153.895 146.18l2.582 8.566" stroke-width="1.2" stroke="#00f" stroke-miterlimit="10" fill="none"/><path d="M153.477 149.246h7v11h-7zm0 0" fill="#fff"/><use xlink:href="#a" x="153.477" y="157.909" fill="#00f"/><path d="M141.773 164.957L127.52 154.13M137.8 167.227l-11.402-8.665" stroke-width="1.2" stroke="#000" stroke-miterlimit="10" fill="none"/><path d="M139.523 182.715l1.125-8.88" stroke-width="1.2" stroke="#00f" stroke-miterlimit="10" fill="none"/><path d="M140.648 173.836l1.125-8.88M127.52 154.13l-16.504 6.925M127.52 154.13l2.95-8.454" stroke-width="1.2" stroke="#000" stroke-miterlimit="10" fill="none"/><path d="M130.47 145.676l2.948-8.45" stroke-width="1.2" stroke="#00f" stroke-miterlimit="10" fill="none"/><path d="M111.016 161.055l-1.125 8.88" stroke-width="1.2" stroke="#000" stroke-miterlimit="10" fill="none"/><path d="M109.89 169.934l-1.124 8.88" stroke-width="1.2" stroke="#00f" stroke-miterlimit="10" fill="none"/><path d="M114.97 163.363l-.9 7.102" stroke-width="1.2" stroke="#000" stroke-miterlimit="10" fill="none"/><path d="M114.07 170.465l-.902 7.1" stroke-width="1.2" stroke="#00f" stroke-miterlimit="10" fill="none"/><path d="M111.016 161.055l-7.125-5.414" stroke-width="1.2" stroke="#000" stroke-miterlimit="10" fill="none"/><path d="M103.89 155.64l-7.124-5.413M108.766 178.813l7.125 5.414" stroke-width="1.2" stroke="#00f" stroke-miterlimit="10" fill="none"/><path d="M115.89 184.227l7.126 5.414" stroke-width="1.2" stroke="#000" stroke-miterlimit="10" fill="none"/><path d="M105.766 173.313h7v11h-7zm0 0" fill="#fff"/><use xlink:href="#a" x="105.766" y="181.976" fill="#00f"/><path d="M123.016 189.64l8.254-3.46" stroke-width="1.2" stroke="#000" stroke-miterlimit="10" fill="none"/><path d="M131.27 186.18l8.253-3.465" stroke-width="1.2" stroke="#00f" stroke-miterlimit="10" fill="none"/><path d="M123.04 185.066l6.6-2.773" stroke-width="1.2" stroke="#000" stroke-miterlimit="10" fill="none"/><path d="M129.64 182.293l6.602-2.77" stroke-width="1.2" stroke="#00f" stroke-miterlimit="10" fill="none"/><path d="M123.016 189.64l-2.25 17.758" stroke-width="1.2" stroke="#000" stroke-miterlimit="10" fill="none"/><path d="M136.523 177.215h7v11h-7zm0 0" fill="#fff"/><use xlink:href="#a" x="136.523" y="185.878" fill="#00f"/><path d="M96.766 150.227l-8.254 3.464" stroke-width="1.2" stroke="#00f" stroke-miterlimit="10" fill="none"/><path d="M88.512 153.69l-8.254 3.466" stroke-width="1.2" stroke="#000" stroke-miterlimit="10" fill="none"/><path d="M89.766 144.727h14v11h-14zm0 0" fill="#fff"/><g fill="#00f"><use xlink:href="#a" x="89.766" y="153.39"/><use xlink:href="#b" x="96.743" y="153.39"/></g><path d="M80.258 157.156l-14.25-10.832M66.008 146.324l2.25-17.758M62.055 144.02l1.8-14.208M49.504 153.254l16.504-6.93M68.258 128.566l-14.25-10.828M54.008 117.738l-16.504 6.93M53.988 122.316L40.78 127.86M37.504 124.668l-2.254 17.758M35.25 142.426l14.254 10.828M39.223 140.156l11.402 8.66" stroke-width="1.2" stroke="#000" stroke-miterlimit="10" fill="none"/><path d="M133.418 137.227l8.945.19" stroke-width="1.2" stroke="#00f" stroke-miterlimit="10" fill="none"/><path d="M142.363 137.418l8.95.19" stroke-width="1.2" stroke="#000" stroke-miterlimit="10" fill="none"/><path d="M135.117 141.477l7.156.152" stroke-width="1.2" stroke="#00f" stroke-miterlimit="10" fill="none"/><path d="M142.273 141.63l7.16.15" stroke-width="1.2" stroke="#000" stroke-miterlimit="10" fill="none"/><path d="M130.418 131.727h7v11h-7zm0 0" fill="#fff"/><use xlink:href="#a" x="130.418" y="140.39" fill="#00f"/><path d="M151.313 137.61l10.828-14.255M162.14 123.355l17.758 2.254M164.445 119.402l14.207 1.805M155.21 106.852l6.93 16.503M179.898 125.61l10.83-14.255M190.727 111.355L183.8 94.852M186.152 111.336l-5.543-13.203M183.8 94.852l-17.757-2.25M166.043 92.602l-10.832 14.25M168.313 96.574l-8.665 11.403" stroke-width="1.2" stroke="#000" stroke-miterlimit="10" fill="none"/></g></svg>
